source/img/htmlacademy-logo.svg

<svg width="12" height="16" viewBox="0 0 12 16" fill="none" xmlns="http://www.w3.org/2000/svg">
<path d="M11.2151 5.75392L5.97184 2.49957V2.49875L5.97121 2.49916L5.97058 2.49875V2.49957L0.784854 5.75013V1.40658L6.00008 0.830884L11.2151 1.40658V5.75392ZM11.211 6.32987L9.12557 7.62344L5.98451 5.65607L5.97935 6.22863L8.66414 7.9096L8.20107 8.19683L5.98451 6.80853L5.97935 7.3811L7.72892 8.47648L7.31607 8.76717L7.30606 8.77351L5.98451 7.95383L5.97935 8.52631L6.8465 9.06404L5.96315 9.62244L0.796198 6.3886L5.97058 3.1139V3.11448L11.211 6.32987ZM11.2151 11.7713L6 15.0384L0.784854 11.7713V7.02542L5.97763 10.2796L5.98631 10.8693L2.42396 8.63702L2.41871 9.20959L5.99523 11.4728L6.00407 12.0782L2.42873 9.83883L2.42356 10.4113L6 12.6745L9.60624 10.4026V7.95712L11.2151 6.94552V11.7713ZM5.99984 -3.17891e-07L0 0.662267V12.2411L6 16L12 12.2411V0.662267L5.99984 -3.17891e-07Z" fill="#BDBDBD"/>
</svg>

<svg xmlns="http://www.w3.org/2000/svg" width="12" height="16" fill="none"><path fill="#BDBDBD" d="M11.215 5.754 5.972 2.5v-.001H5.97L.785 5.75V1.407L6 .83l5.215.576v4.347Zm-.004.576L9.126 7.623 5.985 5.656l-.006.573 2.685 1.68-.463.288-2.216-1.388-.006.572 1.75 1.095-.413.291-.01.007-1.321-.82-.006.572.867.538-.883.558L.796 6.39l5.175-3.275 5.24 3.216Zm.004 5.441L6 15.038.785 11.771V7.025l5.193 3.255.008.59-3.562-2.233-.005.573 3.576 2.263.01.605-3.576-2.24-.005.573L6 12.675l3.606-2.272V7.957l1.61-1.011v4.825ZM6 0 0 .662v11.58L6 16l6-3.759V.662L6 0Z"/></svg>
